X:82
T:Marche a Phillippe Bruneau
M:4/4
L:1/8
S:from Nightingale
K:D
A2||:"D"dAFD "G"GBAG| "A"FGEF "G"D2 (3ABc|"D"dfed "A"cBAF| "G"GBAG "D"FD
D2
    |"D"dAFD "G"GBAG| "A"FGEF "G"D2 (3ABc|"D"dfed "G"cBAG|1"A"FABc "D"d2
"A"A2:||
    |2"A"FABc "D"d2 B/2d/2B
   ||"D"A/2B/2AFA d2Ad|ffdf a4| A/2B/2AFA "G"d2 Ad| "A"c4 "G"B4
   |"A"E3F G2 A2|"A7"c6 B2|"A"A2 cB "A7"AGFE|1"D"Ddzd "A"BAFG:|||2"D"Dd"
A"AF "D"D2 A2||
